X:113
T:Heathery cruach
R:Reel
D:Altan- Island Angel ?
S:Galt Barber
Z:Transcription, chords:Mike Long
M:C|
L:1/8
K:D
(3(ABc)|\
"D"d2AG FDAG|"D"FGAF "A"E2 (3(ABc)|\
"D"d2AG FDAG|"G"FG"A"AF "D"Dgfe|\
"D"d2AG FDAG|"D"FGAF "A"E2FG|
"D"ABAG "G"FDAG|[1 "G"FG"A"AF "D"D2:|[2 "G"FG"A"AF "D"Dfed\
|:"A"cA~A2 cA~A2|cBcd efed|cA~A2 cAAG|
"G"EFGE Dfed|"A"cA~A2 cA~A2|cAcd efed|\
"(D)"ffed "A"cAAG|[1 "G"EFGE Dfed:|[2 "G"EFGE D2|]
